resources/svg/box.svg

<svg xmlns="http://www.w3.org/2000/svg" viewBox="0 0 15 15" fill="currentColor"><path d="M7.30298 0.0404275C7.42875 -0.0134758 7.57112 -0.0134758 7.6969 0.0404275L14.5 2.95605L7.50002 5.95604L0.499949 2.95601L7.30298 0.0404275Z" fill="black"/><path d="M-6.10352e-05 3.82969V11.5C-6.10352e-05 11.7 0.119137 11.8808 0.302979 11.9596L6.99994 14.8297V6.82969L-6.10352e-05 3.82969Z" fill="black"/><path d="M7.99994 6.82976L14.9999 3.82976V11.5C14.9999 11.7 14.8807 11.8808 14.6969 11.9596L7.99994 14.8297V6.82976Z" fill="black"/></svg>

<svg xmlns="http://www.w3.org/2000/svg" viewBox="0 0 15 15" fill="currentColor"><path d="M7.303.04a.5.5 0 01.394 0L14.5 2.956l-7 3-7-3L7.303.04zM0 3.83v7.67c0 .2.12.38.303.46L7 14.83v-8l-7-3zm8 3l7-3v7.67a.5.5 0 01-.303.46L8 14.83v-8z" fill="currentColor"/></svg>
